X:1
T: Colin's Tambourine
N:
C:Colin Hume
S:
A:
O:
R:
M:4/4
K:G
I:speed 224
%W: A1
% voice 1 (1 lines, 35 notes)
K:G
M:4/4
L:1/16
B4 d4 B4 G4 |e4 g4 e4 c4 |B4 d4 B4 G4 |A4 D4 D8 |c4 c4 c4 B2 A2 |B4 B4B4 A2 G2 |A4 D4 A4 D2 B2|B2 D2 A4 F4 D4 |
%W: A2
% voice 1 (1 lines, 35 notes)
B4 d4 B4 G4 |e4 g4 e4 c4 |B4 d4 B4 G4 |A4 D4 D8 |c4 c4 c4 B2 A2 |B4 B4B4 A2 G2 |A4 D4 A4 D4 |G4 z4 G2 A2 B2 c2 |
%W: B1
% voice 1 (1 lines, 39 notes)
d4 z4 e4 z2 B2 |c4 A4 d4 z2 c2 |B4 G4 c4 B4 |A2 G2 F2 E2 D6 D2 |E4 G4 F4 A4 |G4 B4 A4 B2 c2 |d4 G4 c2 B2 A2 G2 |A8A4 B2 c2 |
%W: B2
% voice 1 (1 lines, 39 notes)
d4 z4 e4 z2 B2 |c4 A4 d4 z2 c2 |B4 G4 c4 B4 |A2 G2 F2 E2 D6 D2 |E4 G4 F4 A4 |G4 B4 A4 B2 c2 |d4 G4 c2 B2 A2 G2 |A8A4 F2 G2 |
%W: C
% voice 1 (1 lines, 28 notes)
% A4 A4 A4 A4 |B4 B4 B4 B4 |c4 c4 c4 c4 |d4 d4 d4 d4 |e6 f2 g4 f2 e2 |d4 c4 B4 G4 |A8 d8 |G16 ||

